docs/assets/images/monitor.svg

<svg xmlns="http://www.w3.org/2000/svg" width="69" height="68" fill="none" viewBox="0 0 69 68"><path fill="#29736D" stroke="#002140" stroke-miterlimit="10" d="M35.0844 59.8695H20.6099C19.2016 59.8695 19.1047 57.1759 20.7022 57.1759C26.8567 57.1759 32.8266 55.0211 32.8266 51.2502L32.8451 51.2357V47.0367H32.8035H12.1191C9.21031 47.0367 6.83252 44.5596 6.83252 41.5294V14.5075C6.83252 11.4773 9.21031 9.00024 12.1191 9.00024H57.3802C60.2889 9.00024 62.6667 11.4773 62.6667 14.5075V41.5342C62.6667 44.5644 60.2889 47.0415 57.3802 47.0415H36.7049V47.0704L36.6542 51.2405V51.255C36.6588 55.0259 42.6287 57.1807 48.7878 57.1807C50.3853 57.1807 50.293 59.8743 48.8802 59.8743C48.1599 59.8743 41.1281 59.8743 34.4057 59.8743H35.089L35.0844 59.8695Z"/><path fill="#59A9FF" stroke="#002140" stroke-miterlimit="10" d="M57.9383 11.7419H11.5552C10.2956 11.7419 9.27441 12.8057 9.27441 14.118V42.0874C9.27441 43.3997 10.2956 44.4635 11.5552 44.4635H57.9383C59.198 44.4635 60.2192 43.3997 60.2192 42.0874V14.118C60.2192 12.8057 59.198 11.7419 57.9383 11.7419Z"/><rect width="35" height="11.857" x="15.166" y="14.5" fill="#FFFAF0" stroke="#002140" rx="2.5"/><rect width="12" height="1.631" x="28.381" y="17.429" fill="#002140"/><rect width="18" height="1.631" x="28.381" y="21.714" fill="#002140"/><path fill="#03D47C" fill-rule="evenodd" d="M25.1094 16.8258C25.5442 17.1469 25.6364 17.7597 25.3153 18.1945L21.0562 23.962L17.9955 21.1669C17.5964 20.8024 17.5683 20.1833 17.9328 19.7842C18.2973 19.385 18.9164 19.3569 19.3155 19.7214L20.7721 21.0516L23.7406 17.0317C24.0617 16.5968 24.6746 16.5046 25.1094 16.8258Z" clip-rule="evenodd"/><rect width="35" height="11.857" x="20.166" y="29.5" fill="#FFFAF0" stroke="#002140" rx="2.5"/><rect width="12" height="1.631" x="33.381" y="32.429" fill="#002140"/><rect width="18" height="1.631" x="33.381" y="36.714" fill="#002140"/><path fill="#03D47C" fill-rule="evenodd" d="M30.1099 31.8258C30.5447 32.1469 30.6369 32.7597 30.3158 33.1945L26.0567 38.962L22.996 36.1669C22.5968 35.8024 22.5688 35.1833 22.9333 34.7842C23.2978 34.385 23.9169 34.3569 24.316 34.7214L25.7726 36.0516L28.7411 32.0317C29.0622 31.5968 29.675 31.5046 30.1099 31.8258Z" clip-rule="evenodd"/></svg>

<svg xmlns="http://www.w3.org/2000/svg" width="69" height="68" fill="none" viewBox="0 0 69 68"><path fill="#29736d" stroke="#002140" stroke-miterlimit="10" d="M35.084 59.87H20.61c-1.408 0-1.505-2.694.092-2.694 6.155 0 12.125-2.155 12.125-5.926l.018-.014v-4.2H12.12c-2.909 0-5.286-2.476-5.286-5.507V14.507C6.833 11.478 9.21 9 12.119 9H57.38c2.909 0 5.287 2.477 5.287 5.508v27.026c0 3.03-2.378 5.508-5.287 5.508H36.705v.028l-.05 4.17v.015c.004 3.77 5.974 5.926 12.133 5.926 1.597 0 1.505 2.693.092 2.693H34.406h.683z"/><path fill="#59a9ff" stroke="#002140" stroke-miterlimit="10" d="M57.938 11.742H11.555c-1.26 0-2.28 1.064-2.28 2.376v27.97c0 1.312 1.02 2.376 2.28 2.376h46.383c1.26 0 2.281-1.064 2.281-2.377V14.118c0-1.312-1.021-2.376-2.28-2.376Z"/><rect width="35" height="11.857" x="15.166" y="14.5" fill="#fffaf0" stroke="#002140" rx="2.5"/><path fill="#002140" d="M28.381 17.429h12v1.631h-12zm0 4.285h18v1.631h-18z"/><path fill="#03d47c" fill-rule="evenodd" d="M25.11 16.826a.98.98 0 0 1 .205 1.369l-4.259 5.767-3.06-2.795a.979.979 0 0 1 1.32-1.446l1.456 1.33 2.969-4.02a.98.98 0 0 1 1.368-.205" clip-rule="evenodd"/><rect width="35" height="11.857" x="20.166" y="29.5" fill="#fffaf0" stroke="#002140" rx="2.5"/><path fill="#002140" d="M33.381 32.429h12v1.631h-12zm0 4.285h18v1.631h-18z"/><path fill="#03d47c" fill-rule="evenodd" d="M30.11 31.826a.98.98 0 0 1 .206 1.368l-4.26 5.768-3.06-2.795a.979.979 0 1 1 1.32-1.446l1.457 1.33 2.968-4.02a.98.98 0 0 1 1.369-.205" clip-rule="evenodd"/></svg>
